X:599
T: AUF TRAUERN FOLGT GROSS FREUD
N: E0558A
O: Europa, Mitteleuropa, Deutschland, Lahngegend; Taunus
R: Liebes - Lied
M: 4/4
L: 1/16
K: G
D4 | G6A2B4c2e2 | d8z4
B4 | d6c2e4d4 | B8z4
d4 | B6d2d4e4 | d6c2c4
d4 | B4B4d2c2B4 | B6A2A4
d4 | B6cBA4d4 | B6cBA4
e4 | d4f2e2d4c4 | B8z4

